lib/healthicons/icons/outline/typography/F.svg

<svg fill="none" height="48" viewBox="0 0 48 48" width="48" xmlns="http://www.w3.org/2000/svg"><path clip-rule="evenodd" d="m15 12c0-1.6569 1.3431-3 3-3h12c1.6569 0 3 1.3431 3 3s-1.3431 3-3 3h-9v6h9c1.6569 0 3 1.3431 3 3s-1.3431 3-3 3h-9v9c0 1.6569-1.3431 3-3 3s-3-1.3431-3-3zm3-1c-.5523 0-1 .4477-1 1v24c0 .5523.4477 1 1 1s1-.4477 1-1v-10c0-.5523.4477-1 1-1h10c.5523 0 1-.4477 1-1s-.4477-1-1-1h-10c-.5523 0-1-.4477-1-1v-8c0-.5523.4477-1 1-1h10c.5523 0 1-.4477 1-1s-.4477-1-1-1z" fill="#333" fill-rule="evenodd"/></svg>

<svg width="48" height="48" viewBox="0 0 48 48" fill="none" xmlns="http://www.w3.org/2000/svg">
<path fill-rule="evenodd" clip-rule="evenodd" d="M15 12C15 10.3431 16.3431 9 18 9L30 9C31.6569 9 33 10.3431 33 12C33 13.6569 31.6569 15 30 15L21 15L21 21L30 21C31.6569 21 33 22.3431 33 24C33 25.6569 31.6569 27 30 27L21 27L21 36C21 37.6569 19.6569 39 18 39C16.3431 39 15 37.6569 15 36L15 12ZM18 11C17.4477 11 17 11.4477 17 12L17 36C17 36.5523 17.4477 37 18 37C18.5523 37 19 36.5523 19 36L19 26C19 25.4477 19.4477 25 20 25L30 25C30.5523 25 31 24.5523 31 24C31 23.4477 30.5523 23 30 23L20 23C19.4477 23 19 22.5523 19 22L19 14C19 13.4477 19.4477 13 20 13L30 13C30.5523 13 31 12.5523 31 12C31 11.4477 30.5523 11 30 11L18 11Z" fill="#333333"/>
</svg>
